X: 29576
T: Noon Lassies, The
R: reel
M: 4/4
K: Gmajor
E|G2 BG A2BA|G2AG GEDE|G2 BG A2Ac|BAGE EDDE|
G2 BG A2BA|G2AG GEDE|G2 BG ~A3c|BAGE EDDB||
Pd3B ~A3B|dedB BAAB|dedB ~A3c|BAGE EDDB|
Pd3B ~A3B|dedB BAAB|dedB ~A3c|BAGE EDDB||
dgbg agbg|dgbg agef|~g3e dedB|BAGE EDDB|
dgbg agbg|dgbg agef|Pg2 ge dedB|BAGE ED Dg||
edBg edBg|edBA GEEg|edBd edBA|GAGE ED Dg|
edBg edBg|edBA GEEg|edBd efgB|~G3E ED D2||

